X:1
T:Jesus, Keep Me Near Thee
T:Jesus, Keep Me Near Thee
T:John Robson Sweney
T:William Harrison Horner, 1890
T:Public Domain Courtesy of the Cyber Hymnal™
T:Public Domain Courtesy of the Cyber Hymnal™
C:John Robson Sweney
Z:Public Domain
Z:Courtesy of the Cyber Hymnal™
%%score ( 1 2 ) ( 3 4 )
L:1/8
Q:1/4=93
M:4/4
K:Bb
V:1 treble 
V:2 treble 
V:3 bass 
V:4 bass 
V:1
 [Fd]>[Fd] [Fd]>[Ec] [DB]>[DF] [B,D]>[CE] | [DF]2 [EG]2 [DB]4 | %2
w: 1.~Je- sus, keep me near Thee, nev- er|let me stray,|
w: 2.~Je- sus, keep me near Thee, when temp-|ta- tions come,|
w: 3.~Je- sus, keep me near Thee, when the|clouds a- rise,|
w: 4.~Je- sus, keep me near Thee, in life’s|ev- ery care,|
w: 5.~Je- sus, keep me near Thee, ev- er|con- stant friend,|
 [Ec]>[Ec] [Ec]>[Ec] [Ec]>[EA] [EG]>[EF] | [DB]2 [Fd]2 [Fc]4 | %4
w: Keep me, pre- cious Sav- ior, faith- ful|ev- ery day,|
w: May I nev- er wan- der back in|sin to roam,|
w: And when storms of tri- al dark- en|earth- ly skies,|
w: May Thy bless- èd pre- sence cheer me|ev- ery- where,|
w: All thro’ life’s long jour- ney, till I|see its end,|
 [Fd]>[Fd] [Fd]>[Ec] [DB]>[DF] [B,D]>[CE] | [DF]2 [EG]2 [DB]3 [DB] | %6
w: Oh, be Thou my lead- er, all thro’|life’s long way, And|
w: But be faith- ful ev- er, when a-|broad or home, And|
w: May Thy heav’n- ly sun- shine glad- den|then mine eyes, And|
w: And may bless- èd com- fort come thro’|faith and prayer, To|
w: Cheer me then in death, and shin- ing|an- gels send, To|
 [Ec]>[Ec] [Ge]>[Ge] [Fd]2 [Ec]2 | [DB]6 z2 ||"^Refrain" [DF]4 [B,D]2 [DF]>[DB] | [Fd]4 [DB]4 | %10
w: take me home to Heav’n at|last.|||
w: safe ar- rive in Heav’n at|last.|||
w: guide me safe to Heav’n at|last.|Je- sus, keep me|near Thee,|
w: fit my soul for Heav’n at|last.|||
w: take me home to Heav’n at|last.|||
 [EG]>[EG] [GB]>[EG] F>F [=EB]>[EB] | c6 z2 | [Fd]4 [DB]2 [Fe]>[Fd] | [Ec]4 [EG]4 | %14
w: ||||
w: ||||
w: Lead me in the bless- èd nar- row|way,|Je- sus, keep me|near Thee,|
w: ||||
w: ||||
 [EA]>[EG] [EF]>[Fe] [Fd]2 [Ec]2 | B6 z2 |] %16
w: ||
w: ||
w: Nev- er from Thy fold to|stray.|
w: ||
w: ||
V:2
 x8 | x8 | x8 | x8 | x8 | x8 | x8 | x8 || x8 | x8 | x4 F>F x2 | (F>F=E>E _E2) x2 | x8 | x8 | x8 | %15
 (D2 E2 D2) x2 |] %16
V:3
 [B,,B,]>[B,,B,] [B,,B,]>[B,,F,] [B,,F,]>[B,,F,] [B,,F,]>[B,,F,] | [B,,B,]2 [B,,B,]2 [B,,F,]4 | %2
w: ~ ~ ~ ~ ~ ~ ~ ~|~ ~ ~|
 [F,A,]>[F,A,] [F,A,]>[F,A,] [F,A,]>[F,C] [F,B,]>[F,A,] | [B,,B,]2 [B,,B,]2 [F,A,]4 | %4
w: ~ ~ ~ ~ ~ ~ ~ ~|~ ~ ~|
 [B,,B,]>[B,,B,] [B,,B,]>[B,,F,] [B,,F,]>[B,,F,] [B,,F,]>[B,,F,] | %5
w: ~ ~ ~ ~ ~ ~ ~ ~|
 [B,,B,]2 [B,,B,]2 [B,,F,]3 [B,,F,] | [E,G,]>[E,G,] [C,C]>[C,C] [F,B,]2 [F,A,]2 | [B,,B,]6 z2 || %8
w: ~ ~ ~ ~|~ ~ ~ ~ ~ ~|~|
 [B,,B,]>[B,,B,] [B,,B,]>[B,,B,] [B,,F,]2 [B,,B,]2 | %9
w: Je- sus, keep me near Thee,|
 [B,,B,]>[B,,B,] [B,,B,]>[B,,B,] [B,,F,]2 (F,B,) | %10
w: Je- sus, keep me near Thee, *|
 [E,B,]>[E,B,] [E,B,]>[E,B,] [E,B,]>[E,B,] [C,G,]>[C,G,] | [F,A,]>[F,A,] [G,B,]>[G,B,] [A,C]2 z2 | %12
w: ~ ~ ~ ~ ~ ~ in the|bless- èd nar- row way,|
 [B,,B,]>[B,,B,] [B,,B,]>[B,,B,] [B,,F,]>[B,,F,] [C,A,]>[D,B,] | [E,G,]4 [E,C]4 | %14
w: Je- sus, keep me near Thee, keep me|~ ~|
 [F,C]>[F,B,] [F,A,]>[F,C] [F,B,]2 F,2 | F,2 G,2 F,2 z2 |] %16
w: ~ ~ ~ ~ ~ ~|~ to stray.|
V:4
 x8 | x8 | x8 | x8 | x8 | x8 | x8 | x8 || x8 | x6 B,,2 | x8 | x8 | x8 | x8 | x6 F,2 | B,,6 x2 |] %16

